X: 1
T: Denny Mescall's
M: 12/8
L: 1/8
R: slide
K: Gmaj
|:A|B2B BAB d2B G2A|B2d g2e d2B A2c|
B2B BAB d2B G2A|B2d cBA G3G2:|
|:d|~g3 gfe d2B c2d|eaa a2b a2g e2f|
~g3 gfe d2B c2d|e2d e2f ~g3 g2:|
